src/assets/result_question.svg

<svg viewBox="0 0 200 200" version="1.1" xmlns="http://www.w3.org/2000/svg" xmlns:xlink="http://www.w3.org/1999/xlink">
  <title>结果-疑问</title>
  <g id="页面-1" stroke="none" stroke-width="1" fill="none" fill-rule="evenodd">
      <g id="结果-疑问">
          <g>
              <path d="M100.06359,0.180635838 C44.8764535,0.180635838 0.136264535,44.662211 0.136264535,99.5303468 C0.136264535,154.398483 44.8764535,198.880058 100.06359,198.880058 C155.250727,198.880058 199.990916,154.398483 199.990916,99.5303468 C199.990916,44.662211 155.250727,0.180635838 100.06359,0.180635838 Z M100.199855,167.268786 C94.681141,167.268786 90.2071221,162.820629 90.2071221,157.333815 C90.2071221,151.847001 94.681141,147.398844 100.199855,147.398844 C105.718568,147.398844 110.192587,151.847001 110.192587,157.333815 C110.192587,162.820629 105.718568,167.268786 100.199855,167.268786 Z M133.561955,98.175578 C127.452762,105.649386 118.958939,110.955564 109.556686,113.145773 L109.556686,126.648302 C109.556686,132.135116 105.082667,136.583273 99.5639535,136.583273 C94.0452398,136.583273 89.5712209,132.135116 89.5712209,126.648302 L89.5712209,112.671604 C89.5712209,108.291185 91.0928416,104.001084 93.8635538,100.569003 C96.6115552,97.1820809 100.495094,94.7886561 104.787427,93.8403179 C109.96548,92.6887645 114.666606,89.7760116 118.050509,85.6439668 C121.502544,81.3990246 123.342115,76.2509032 123.342115,70.7866691 C123.342115,64.4869942 120.866642,58.548591 116.369913,54.077854 C111.873183,49.6071171 105.922965,47.1459538 99.5639535,47.1459538 C86.4598474,47.1459538 75.8085029,57.7357298 75.8085029,70.7640896 C75.8085029,76.2509032 71.334484,80.6990607 65.8157703,80.6990607 C60.2970567,80.6990607 55.8230378,76.2509032 55.8230378,70.7640896 C55.8230378,46.7846821 75.4451308,27.2760116 99.5639535,27.2760116 C111.237282,27.2760116 122.229288,31.7919075 130.496003,40.0334176 C138.762718,48.2523483 143.304869,59.1808165 143.304869,70.7866691 C143.304869,80.7442197 139.852834,90.453396 133.561955,98.175578 Z" id="形状" fill="rgba(216, 216, 216)" fill-rule="nonzero"></path>
          </g>
      </g>
  </g>
</svg>

<svg viewBox="0 0 200 200" xmlns="http://www.w3.org/2000/svg"><path d="M100.064.18C44.876.18.136 44.663.136 99.53c0 54.868 44.74 99.35 99.928 99.35 55.187 0 99.927-44.482 99.927-99.35 0-54.868-44.74-99.35-99.927-99.35zm.136 167.089c-5.519 0-9.993-4.448-9.993-9.935s4.474-9.935 9.993-9.935 9.993 4.448 9.993 9.935-4.474 9.935-9.993 9.935zm33.362-69.093c-6.11 7.473-14.603 12.78-24.005 14.97v13.502c0 5.487-4.474 9.935-9.993 9.935s-9.993-4.448-9.993-9.935v-13.976c0-4.38 1.522-8.67 4.293-12.103 2.748-3.387 6.631-5.78 10.923-6.729 5.178-1.151 9.88-4.064 13.264-8.196 3.452-4.245 5.291-9.393 5.291-14.857 0-6.3-2.475-12.238-6.972-16.71-4.497-4.47-10.447-6.931-16.806-6.931-13.104 0-23.755 10.59-23.755 23.618 0 5.487-4.475 9.935-9.993 9.935-5.519 0-9.993-4.448-9.993-9.935 0-23.98 19.622-43.488 43.741-43.488 11.673 0 22.665 4.516 30.932 12.757 8.267 8.22 12.809 19.148 12.809 30.754a43.445 43.445 0 01-9.743 27.389z" fill="rgba(216, 216, 216)" fill-rule="nonzero"/></svg>
